icons/snyk.svg

<!--
  - The MIT License (MIT)
  -
  - Copyright (c) 2015-2024 Elior "Mallowigi" Boukhobza
  -
  - Permission is hereby granted, free of charge, to any person obtaining a copy
  - of this software and associated documentation files (the "Software"), to deal
  - in the Software without restriction, including without limitation the rights
  - to use, copy, modify, merge, publish, distribute, sublicense, and/or sell
  - copies of the Software, and to permit persons to whom the Software is
  - furnished to do so, subject to the following conditions:
  -
  - The above copyright notice and this permission notice shall be included in all
  - copies or substantial portions of the Software.
  -
  - THE SOFTWARE IS PROVIDED "AS IS", WITHOUT WARRANTY OF ANY KIND, EXPRESS OR
  - IMPLIED, INCLUDING BUT NOT LIMITED TO THE WARRANTIES OF MERCHANTABILITY,
  - FITNESS FOR A PARTICULAR PURPOSE AND NONINFRINGEMENT. IN NO EVENT SHALL THE
  - AUTHORS OR COPYRIGHT HOLDERS BE LIABLE FOR ANY CLAIM, DAMAGES OR OTHER
  - LIABILITY, WHETHER IN AN ACTION OF CONTRACT, TORT OR OTHERWISE, ARISING FROM,
  - OUT OF OR IN CONNECTION WITH THE SOFTWARE OR THE USE OR OTHER DEALINGS IN THE
  - SOFTWARE.
  -
  -->

<svg  version="1.1" xmlns="http://www.w3.org/2000/svg" viewBox="0 0 280 512" width="16px" height="16px">
  <path fill="#7E57C2" data-iconColor="Snyk"
        d="M192.1924591,467.8479919c19.9330444-11.0666809,23.4502106-27.0832214,29.1260529-55.4499207l15.526413-48.2515869c10.2921906-13.5228577,22.3249359-30.2219238,25.4815521-38.3391418c5.1133423-13.1237183-1.6600647-80.2962799-5.0656738-111.2111206l20.9466248-56.7153015C278.6167603,124.3939133,243.1586761,60.3871498,211.9544067,0l-21.1604309,147.842926l-9.76651,16.0587616c-27.5761871-10.2483368-55.2897568-9.2015381-83.1023788-0.0100708l-9.7715836-16.0512238L66.9604263,0C38.3304558,52.9690437-0.8978561,126.9166641,0.0156676,157.8834534l21.3264046,56.7077789c-3.4105835,30.9198303-9.9199543,98.0824127-4.8065357,111.2085724c3.1867981,8.2076111,15.4509239,25.1551819,25.8235989,38.7383423l15.4308014,48.9797363c4.8561592,29.936676,11.778904,44.4761658,29.0053215,54.3526917C89.6287842,527.5216675,191.1123505,525.8997803,192.1924591,467.8479919z M163.2550201,266.7645874c18.1071777-24.6425323,60.239563-25.3967743,37.1420288,0H163.2550201z M162.2916565,279.0321045h10.3023376c0.8022003,20.0834045,29.463089,21.0054932,30.9143677,0h12.8753662C214.9413147,313.0718689,164.525116,313.9475708,162.2916565,279.0321045z M83.0232773,286.1952515c5.0581284-0.2953491,4.8012543-6.1349487,2.6873474-7.1631165l7.6250458-0.0000305c2.2158432,0,3.5413666,3.9267883,3.1590652,6.6785889C94.8810959,293.9645996,84.432518,292.9122314,83.0232773,286.1952515z M62.806057,279.0321045h10.3023338c0.8022079,20.0834045,29.463089,21.0054932,30.9143677,0h12.8753586C115.455719,313.0718689,65.0395126,313.9475708,62.806057,279.0321045z M126.6663055,469.9067383c2.7516632-1.2227173,5.2366791-2.6789551,7.4274139-4.2807617c3.4591064,0.8140564,7.0503387,0.8824158,10.7525177,0.0125122c2.1958008,1.5892944,4.6858063,3.0455322,7.4374695,4.2682495C144.2168579,475.5970154,133.4580536,474.9714966,126.6663055,469.9067383z M78.5001144,266.7645874c-23.105854-24.3998413,18.348793-25.1130524,37.144577,0H78.5001144z M30.5074883,179.4231873l-9.3213139-25.0623322c1.1670151-16.3274536,18.1823826-55.4473648,34.4130325-88.4160461l4.3261642,30.1440582C58.2753754,107.3596191,50.7347641,151.5613403,30.5074883,179.4231873z M83.9908447,434.1336365c-5.643013-16.2131653-8.3951263-36.6812439-8.5642471-60.9509888l-16.6907387-21.258606l24.3470039-7.112854l27.3805161-31.2186279l4.2323761,79.5900879c-1.6763,3.037384-5.7993546,10.8035278-5.7993546,13.7293701c0,7.164978,12.8529434,17.1173401,21.6647415,23.098877l-0.6024323,9.3676758C118.6380234,460.776001,91.5786057,455.3852539,83.9908447,434.1336365z M108.3204193,473.4619751c2.2534943,0.1002197,4.7608719-0.0722046,7.4449997-0.4343262c11.9796371,15.4966125,39.3770218,12.3690491,47.4996567,0.0100403c2.6342621,0.3609314,5.1472778,0.5556335,7.422348,0.4242859C162.1481781,498.7826233,115.4850388,497.6567078,108.3204193,473.4619751z M203.5561218,373.1952209c-0.2093811,22.8778992-2.7096558,46.1474915-8.5642395,60.9509277c-10.1994171,25.9647522-38.212326,22.4315796-46.1464844,5.3027344l-0.6791229-10.1950378c9.2521515-6.1398315,21.9200439-15.7479248,21.9200439-22.3418274c0-3.8633728-3.8464203-10.7951355-5.5441895-13.6679077l4.2237396-79.6365051l27.385498,31.2237244l24.1272583,7.0453186C215.1008759,358.6229858,209.4863739,365.7657776,203.5561218,373.1952209z M248.7066345,178.8306427c-21.8546295-30.6713257-28.7111206-80.5323486-29.3046875-85.0893555l3.986557-27.7939453c16.2281189,32.9661484,33.2535553,72.0885925,34.420639,88.4160461L248.7066345,178.8306427z M182.5088196,286.1952515c5.0581207-0.2953491,4.8012543-6.1349487,2.6873322-7.1631165l7.6250458-0.0000305c2.2158508,0,3.5413818,3.9267883,3.1590729,6.6785889C194.3666229,293.9645996,183.918045,292.9122314,182.5088196,286.1952515z"/>
</svg>

<svg xmlns="http://www.w3.org/2000/svg" viewBox="0 0 280 512"><path fill="#7e57c2" d="M192.192 467.848c19.934-11.067 23.45-27.083 29.127-55.45l15.526-48.252c10.292-13.522 22.325-30.221 25.481-38.339 5.114-13.123-1.66-80.296-5.065-111.21l20.946-56.716c.41-33.487-35.048-97.494-66.253-157.881l-21.16 147.843-9.767 16.059c-27.576-10.249-55.29-9.202-83.102-.01l-9.771-16.052L66.96 0C38.33 52.969-.898 126.917.016 157.883l21.326 56.708c-3.41 30.92-9.92 98.083-4.806 111.209 3.186 8.207 15.45 25.155 25.823 38.738l15.43 48.98c4.857 29.937 11.78 44.476 29.006 54.353 2.834 59.65 104.317 58.029 105.397-.023m-28.937-201.083c18.107-24.643 60.24-25.397 37.142 0zm-.963 12.267h10.302c.802 20.084 29.463 21.006 30.914 0h12.876c-1.443 34.04-51.859 34.916-54.092 0m-79.269 7.163c5.058-.295 4.802-6.135 2.688-7.163h7.625c2.216 0 3.541 3.927 3.159 6.679-1.614 8.254-12.062 7.201-13.472.484m-20.217-7.163h10.302c.803 20.084 29.463 21.006 30.915 0h12.875c-1.442 34.04-51.858 34.916-54.092 0m63.86 190.875a40.3 40.3 0 0 0 7.428-4.281c3.459.814 7.05.882 10.752.012a41.3 41.3 0 0 0 7.438 4.269c-8.067 5.69-18.826 5.064-25.618 0M78.5 266.765c-23.106-24.4 18.349-25.113 37.145 0zm-47.993-87.342-9.32-25.062c1.166-16.328 18.182-55.448 34.412-88.416l4.326 30.144c-1.65 11.27-9.19 55.472-29.418 83.334m53.484 254.71c-5.643-16.213-8.395-36.68-8.564-60.95l-16.691-21.259 24.347-7.113 27.38-31.218 4.233 79.59c-1.677 3.037-5.8 10.803-5.8 13.729 0 7.165 12.853 17.117 21.665 23.099l-.602 9.368c-11.321 21.397-38.38 16.006-45.968-5.245m24.33 39.329c2.253.1 4.76-.072 7.444-.434 11.98 15.496 39.377 12.369 47.5.01 2.634.36 5.147.555 7.422.424-8.539 25.32-55.202 24.195-62.367 0m95.235-100.267c-.21 22.878-2.71 46.148-8.564 60.951-10.2 25.965-38.212 22.432-46.147 5.303l-.679-10.195c9.252-6.14 21.92-15.748 21.92-22.342 0-3.863-3.846-10.795-5.544-13.668l4.224-79.636 27.385 31.223 24.128 7.046c-5.178 6.746-10.793 13.889-16.723 21.318m45.15-194.364c-21.854-30.672-28.71-80.533-29.304-85.09l3.987-27.794c16.228 32.966 33.253 72.089 34.42 88.416zM182.51 286.195c5.058-.295 4.801-6.135 2.687-7.163h7.625c2.216 0 3.542 3.927 3.16 6.679-1.614 8.254-12.063 7.201-13.472.484" data-iconColor="Snyk"/></svg>
